X:89
T:RVW2/2/89 The Lads of Kilkenny
C:Mrs. Berry, Leith Hill Farm, Surrey, May 1904, who learnt it from her father
L:1/8
Q:1/4=120
M:3/4
I:linebreak $
K:D
"^(Editorial suggestion  " d>e | (f3 e) gf | (ed) B2 d2 | A2 d2 d2 | d4 d2 |$ g2 g2 gg | 
w: It's the|boys _ of Kil-|kai- * ny are|stout ro- ving|blades They'll|kiss and they will|
(fd) d2 (df) | a3 g"^(a)" ff | e4 d2 |$ g2 g2 g2 | fd d2 df | a3 g f2 | e4 d>f |$ f3 e (gf) | 
w: court _ and will _|spend their mo- ney|free ?||||* and it's|down in old _|
(ed) B2 d2 | A2 d2 d2 | d4 ||$ d>e | f3 e gf | (ed) B2 d2 | A2 d2 d2 | d4 d2 |$ g2 g2 gg | 
w: Ire- * land Kil-|kainy is for|me.|||||||
fd d2 df | a3 g"^(a) var." f2 | e4 d2 |$ g2 g2 g2 | fd d2 df | a3 g f2 | e4 d>f |$ f3 e gf | 
w: ||||||||
ed B2 d2 | A2 d2 d2 | d4 |] 
w: |||



